X:289
T: MORGEN MUSS ICH WEG VON HIER
N: Z0287
O: Europa, Mitteleuropa, Deutschland
R: Lyrisches Lied, Romanze, Abschieds - Lied
M: 3/4
L: 1/16
K: G
d6B2e2d2 | d3cB4z4
A2B2c2e2d2c2 | c4B4z4
d6B2e2d2 | d3cB4z4
A2d2f3ed2^c2 | e4d4z4
c6B2A2G2 | F3GA4z4
e6d2c2B2 | A3BA4z4
d6B2c2d2 | e2f2a2g2f2e2
d6cBc2A2 | A4B4z4

